X:460
T: VOR MEINES HERZLIEBCHENS FENSTER
N: E0409
O: Europa, Mitteleuropa, Deutschland, Niederrhein
R: Liebes - Lied, Abschied
M: 6/8
L: 1/16
K: G
D2 | G2G2G2A2G2A2 | B6A4
Bc | d2c2B2A2G2A2 | B4z6
B2 | d2c2B2A2G2A2 | G4E2D4D2 | B4G2A4
Bc | d3cB2A2G2A2 | G8z2

@@@ Tune index: 4110
